packages/styles/assets/img/pv-images/redeem/swiss_based.svg

<svg xmlns="http://www.w3.org/2000/svg" viewBox="0 0 43 47" enable-background="new 0 0 43 47"><style type="text/css">.st0{fill:#6F6F6F;}</style><path class="st0" d="M21.5 0c-14.4 0-21.5 4.7-21.5 4.7v12.5c0 10.9 5.8 21.2 15.6 27.1 3.3 2 5.9 2.7 5.9 2.7s2.5-.8 5.9-2.7c9.8-5.9 15.6-16.2 15.6-27.2v-12.5s-7.1-4.6-21.5-4.6zm14.9 25h-10.3v9.9h-9.2v-9.9h-10.3v-8.6h10.4v-9.8h9.2v9.9h10.5c-.3-.1-.3 8.5-.3 8.5z"/></svg>

<?xml version="1.0" encoding="utf-8"?>
<!-- Generator: Adobe Illustrator 22.1.0, SVG Export Plug-In . SVG Version: 6.00 Build 0)  -->
<svg version="1.1" id="Layer_1" xmlns="http://www.w3.org/2000/svg" xmlns:xlink="http://www.w3.org/1999/xlink" x="0px" y="0px"
	 viewBox="0 0 43 47" style="enable-background:new 0 0 43 47;" xml:space="preserve">
<style type="text/css">
	.st0{fill:#6F6F6F;}
</style>
<path class="st0" d="M21.5,0C7.1,0,0,4.7,0,4.7v12.5c0,10.9,5.8,21.2,15.6,27.1c3.3,2,5.9,2.7,5.9,2.7s2.5-0.8,5.9-2.7
	C37.2,38.4,43,28.1,43,17.1V4.6C43,4.6,35.9,0,21.5,0z M36.4,25H26.1v9.9h-9.2V25H6.6v-8.6H17V6.6h9.2v9.9h10.5
	C36.4,16.4,36.4,25,36.4,25z"/>
</svg>
